svgs/sharp-solid/file-waveform.svg

<svg xmlns="http://www.w3.org/2000/svg" viewBox="0 0 448 512"><!--! Font Awesome Pro 6.6.0 by @fontawesome - https://fontawesome.com License - https://fontawesome.com/license (Commercial License) Copyright 2024 Fonticons, Inc. --><path d="M256 0L32 0l0 288 112 0 9.9 0 4.4 8.8L176 332.2l49.7-99.4L240 204.2l14.3 28.6L281.9 288l70.1 0 16 0 0 32-16 0-80 0-9.9 0-4.4-8.8L240 275.8l-49.7 99.4L176 403.8l-14.3-28.6L134.1 320 32 320l0 192 384 0 0-352-160 0L256 0zm32 0l0 128 128 0L288 0z"/></svg>

<svg xmlns="http://www.w3.org/2000/svg" viewBox="0 0 448 512"><!--! Font Awesome Pro 6.4.2 by @fontawesome - https://fontawesome.com License - https://fontawesome.com/license (Commercial License) Copyright 2023 Fonticons, Inc. --><path d="M256 0H32V288H144h9.9l4.4 8.8L176 332.2l49.7-99.4L240 204.2l14.3 28.6L281.9 288H352h16v32H352 272h-9.9l-4.4-8.8L240 275.8l-49.7 99.4L176 403.8l-14.3-28.6L134.1 320H32V512H416V160H256V0zm32 0V128H416L288 0z"/></svg>
